X:158
T:Trafaelais I Gymru - I've Travelled Wales
M:6/8
L:1/8
Q:120
C:Trad.
S:Davidsons Musical Miracles 1859
R:Jig
K:G
D | G2 G GBA | GFG E2 F | G2 A FED | GFG E2 D | G2 G
GBA | GFG E2 F | G2 A FED | GFG E2 :|| B | B2 c d2
d | dcB d2 c | B2 c dcB | cBA B2 G | BcB BAG | ABA AGF
| G3- G2 G | EFE E2 B | BAG A2 B | GFE FED | E3- E2
||
